X: 1 
T:Haste to the Wedding 
M:6/8 
R:jig 
Z: John Chambers <jc@eddie.mit.edu> http://eddie.mit.edu/~jc/music/
N: Cole p.53
E:9 
K:D 
|: A \
| "D"A[BF]A Agf | "G"ede "A7"fdB | "D"A[BF]A "Bm"AdF | "Em"GFG "A7"EFG \
| "D"A[BF]A Aaf | "G"ede "A7"fdB | "D"A[BF]A "A7"faf | "D"ded d2 :| 
|: f/g/ \
| "D"afa afa | "G"bgb "(A7)"bag | "D"fga "Bm"agf | "Em"[ge]f[ge] "A7"efg \
| "D"az2 "Bm"~f3 | "Em"ede "A7"fdB | "D"A[BF]A "A7"faf | "D"ded d2 :|
